!!!OTL: ROSESTOCK HOLDERBLUET
!!!ARE: Europa, Mitteleuropa, Deutschland
!!!SCT: E1016
!!!YEM: Copyright 1995, estate of Helmut Schaffrath.
**kern
*ICvox
*Ivox
*M3/8
*k[]
*C:
=1
{8.e
16d
16c
16E
=2
8A
16G
16F
8D}
=3
{8A
16G
16F
8D
=4
8A
16G
16E
8C}
=5
{8.e
16d
16c
16G
=6
8A
16G
16F
8D}
=7
{8G
8B
8d
=8
4c
8r}
=9
{16f
16e
4d
=10
16e
16d
4B}
=11
{8G
8A
8c
=12
16c
16B
16c
16d
8e}
=13
{16f
16e
4d
=14
16e
16d
4B}
=15
{8G
8A
8c
=16
4c
8r}
==
!!!AGN: Tanz - Lied; Liebe
!!!ONB: ESAC (Essen Associative Code) Database: ERK3
!!!AMT: simple triple
!!!AIN: vox
!!!EED: Helmut Schaffrath
!!!EEV: 1.0
*-
